pix_core/t/collapsed_empty_rtl.svg

<!DOCTYPE svg PUBLIC "-//W3C//DTD SVG 1.1//EN" "http://www.w3.org/Graphics/SVG/1.1/DTD/svg11.dtd" [
	<!ENTITY ns_flows "http://ns.adobe.com/Flows/1.0/">
]><svg xmlns="http://www.w3.org/2000/svg" width="16" height="16" viewBox="-5 -2.1 16 16" preserveAspectRatio="xMinYMid meet" overflow="visible" enable-background="new -5 -2.1 16 16"><path d="M.3 6.6l5 5c.4.4.7.3.7-.3v-10.8c0-.5-.3-.7-.7-.3l-5 5c-.4.4-.4 1 0 1.4zm1.4-1.4l2.6-2.6c.4-.4.7-.2.7.3v6c0 .5-.3.7-.7.3l-2.6-2.6c-.4-.4-.4-1 0-1.4z" fill="#1F4D87"/></svg>

<?xml version="1.0" encoding="utf-8"?>
<!-- Generator: Adobe Illustrator 15.1.0, SVG Export Plug-In  -->
<!DOCTYPE svg PUBLIC "-//W3C//DTD SVG 1.1//EN" "http://www.w3.org/Graphics/SVG/1.1/DTD/svg11.dtd" [
	<!ENTITY ns_flows "http://ns.adobe.com/Flows/1.0/">
]>
<svg version="1.1"
	 xmlns="http://www.w3.org/2000/svg" xmlns:xlink="http://www.w3.org/1999/xlink" xmlns:a="http://ns.adobe.com/AdobeSVGViewerExtensions/3.0/"
	 x="0px" y="0px" width="16px" height="16px" viewBox="-5 -2.1 16 16"
	 style="overflow:visible;enable-background:new -5 -2.1 16 16;" xml:space="preserve" preserveAspectRatio="xMinYMid meet">
<defs>
</defs>
<path style="fill:#1F4D87;" d="M0.3,6.6l5,5C5.7,12,6,11.9,6,11.3V0.5C6,0,5.7-0.2,5.3,0.2l-5,5C-0.1,5.6-0.1,6.2,0.3,6.6z M1.7,5.2
	l2.6-2.6C4.7,2.2,5,2.4,5,2.9v6c0,0.5-0.3,0.7-0.7,0.3L1.7,6.6C1.3,6.2,1.3,5.6,1.7,5.2z"/>
</svg>
